X:153
T: AUF HOHER ALP
N: B0644
O: Europa, Mitteleuropa, Deutschland
R: Kinder - Lied, Natur, religioes
M: 3/4
L: 1/16
K: Eb
G2G3G | B8G4 | c6B2A2G2 | B8
G4 | F6A2G2B2 | A8
F4 | G6B2=A3c | B3dc3=ed3
f | e2d2e2c2=A2c2 | B6
B2B3B | d6B2B3B | e8
G4 | c6B2A2G2 | B4A4F4 | E12- | E4z2

